X: 2182
T:Farewell to Miltown Malbay
C:Junior Crehan
S:Mick O'Brien; posted to Ir-Trad by Juergen Gier, 8/98
L:1/8
M:4/4
K:EDor
ED|B,EE^D EDEF|GEED EDB,C|D2B,D A,DB,D|A,DDC DB,A,D|\
B,EE^D ~E3 F|GEED EDB,C|D2AD BDAD|FBAF E2::EA|\
Bee^d ~e3 f|gefe edBc|cddc dcBc|defd edBA|Bee^d ~e3 f|\
gefe edBc|cd d2BAFE|DBAF E2:|
